X: 1
T: Lochiel House
M: 2/4
L: 1/16
R: March
K: D
A2 \
| "D"d3e d2A2 | "G"BcdB "D"A2GF | "G"G2B2  "D"A2d2 | "E7"f2e2 "A7"e2f2 \
| "D"d3e d2A2 | "G"BcdB "D"A2GF |"Em"EFGA "A7"Bcde | "D"f2d2      d2  :|
|: fg \
| "D"a3b     a2gf | "A7"g3a     g2fe | "D"f2ed "Bm"a2gf | "Em"f2e2 "A7"e2fg \
| "D"a3b "Bm"a2gf | "Em"g3a "A7"g2fe | "D"f2ed "A7"A2c2 |  "D"d4-      d2  :|
